assets/img/braze_icons/line-chart-down-05.svg

<svg fill="none" height="24" viewBox="0 0 24 24" width="24" xmlns="http://www.w3.org/2000/svg"><path clip-rule="evenodd" d="m12 1c-6.07513 0-11 4.92487-11 11 0 6.0751 4.92487 11 11 11 6.0751 0 11-4.9249 11-11 0-6.07513-4.9249-11-11-11zm-5.29289 8.29289c-.39053-.39052-1.02369-.39052-1.41422 0-.39052.39053-.39052 1.02371 0 1.41421l3.45068 3.4507c.0842.0843.18475.1849.2806.2663.11107.0942.27967.2198.5123.2954.30127.0979.62583.0979.92703 0 .2327-.0756.4013-.2012.5123-.2954.0959-.0814.1964-.1821.2806-.2663l2.7436-2.7436 3.2929 3.2929c.3905.3905 1.0237.3905 1.4142 0s.3905-1.0237 0-1.4142l-3.4506-3.45067c-.0842-.08426-.1848-.1849-.2807-.26628-.111-.09429-.2796-.21984-.5123-.29543-.3012-.09788-.6258-.09788-.927 0-.2327.07559-.4013.20114-.5123.29543-.0959.08138-.1964.18201-.2806.26627l-2.7436 2.74358z" fill="#801ed7" fill-rule="evenodd"/></svg>

<svg width="24" height="24" viewBox="0 0 24 24" fill="none" xmlns="http://www.w3.org/2000/svg">
<path fill-rule="evenodd" clip-rule="evenodd" d="M12 1C5.92487 1 1 5.92487 1 12C1 18.0751 5.92487 23 12 23C18.0751 23 23 18.0751 23 12C23 5.92487 18.0751 1 12 1ZM6.70711 9.29289C6.31658 8.90237 5.68342 8.90237 5.29289 9.29289C4.90237 9.68342 4.90237 10.3166 5.29289 10.7071L8.74357 14.1578C8.82777 14.2421 8.92832 14.3427 9.02417 14.4241C9.13524 14.5183 9.30384 14.6439 9.53647 14.7195C9.83774 14.8174 10.1623 14.8174 10.4635 14.7195C10.6962 14.6439 10.8648 14.5183 10.9758 14.4241C11.0717 14.3427 11.1722 14.242 11.2564 14.1578L14 11.4142L17.2929 14.7071C17.6834 15.0976 18.3166 15.0976 18.7071 14.7071C19.0976 14.3166 19.0976 13.6834 18.7071 13.2929L15.2565 9.84223C15.1723 9.75797 15.0717 9.65733 14.9758 9.57595C14.8648 9.48166 14.6962 9.35611 14.4635 9.28052C14.1623 9.18264 13.8377 9.18264 13.5365 9.28052C13.3038 9.35611 13.1352 9.48166 13.0242 9.57595C12.9283 9.65733 12.8278 9.75796 12.7436 9.84222L10 12.5858L6.70711 9.29289Z" fill="#801ED7"/>
</svg>
